src/main/resources/icons/MicronautIcons/icons/micronautLogo.svg

<svg xmlns="http://www.w3.org/2000/svg" width="16" height="16" viewBox="0 0 16 16">
  <path fill="#9AA7B0" fill-rule="evenodd" d="M13.5993767,10.7451679 C13.0876561,11.2096369 12.5466812,11.6408173 11.979781,12.0360559 C11.1818324,12.5762061 10.1672465,12.6833786 9.27405372,12.321867 C8.56892715,12.1048223 8.06110372,11.4882919 7.98316575,10.754645 C7.03046233,11.5405006 6.13487139,12.4552952 4.75819022,12.5171461 C4.64870411,13.0363946 4.30819152,14.576662 4.2771,14.8178498 C4.25215996,15.1560346 4.08655931,15.2942016 3.75336255,15.3665273 C2.92461029,15.533375 1.12868979,15.9715687 1,16 C2.00025544,11.3126333 2.99103363,6.64596658 3.97233457,2 L7.03046233,2 C6.86860258,2.75742411 5.46797911,9.42160854 5.4592502,9.51214036 C5.37819542,10.3124611 5.88322795,10.784074 6.65960635,10.550637 C7.09894906,10.3743644 7.51619487,10.1473693 7.90285932,9.87426744 C7.96471021,9.84084788 7.98391388,9.71714609 8.0026188,9.6313529 C8.52984777,7.14800635 9.6087747,2.05919888 9.63643017,2.00024938 L12.6366975,2.00024938 C12.4748376,2.76715053 11.4552955,7.67357264 11.102895,9.38369995 C11.0750261,9.5200059 11.0638042,9.65919067 11.0694755,9.79820088 C11.0450912,10.1612061 11.3009222,10.4831557 11.6600518,10.5414091 C11.9963269,10.6397953 12.3579247,10.6004052 12.6651289,10.431923 C12.9937992,10.2465545 13.3118621,10.0429776 13.6178323,9.82214296 C13.9404326,9.58344422 14.2445647,9.32074685 14.5276389,9.03628752 C14.810224,8.78090318 15.2036567,8.68750652 15.5708739,8.78863457 C14.8902647,9.463757 14.266269,10.1306493 13.5993767,10.7451679 Z"/>
</svg>

<svg xmlns="http://www.w3.org/2000/svg" width="16" height="16" viewBox="0 0 16 16"><rect id="frame" width="16" height="16" fill="none"/><path fill="#9AA7B0" fill-rule="evenodd" d="M13.6 10.745c-.512.465-1.053.896-1.62 1.291a2.892 2.892 0 0 1-2.706.286 1.844 1.844 0 0 1-1.29-1.567c-.954.786-1.85 1.7-3.226 1.762-.11.52-.45 2.06-.48 2.3-.026.339-.191.477-.525.55-.828.166-2.624.605-2.753.633 1-4.687 1.991-9.354 2.972-14H7.03c-.161.757-1.562 7.422-1.57 7.512-.082.8.423 1.272 1.2 1.039.439-.177.856-.404 1.243-.677.062-.033.08-.157.1-.243.527-2.483 1.606-7.572 1.633-7.63h3c-.161.766-1.18 5.673-1.533 7.383a1.72 1.72 0 0 0-.034.414.705.705 0 0 0 .591.743 1.32 1.32 0 0 0 1.005-.11c.329-.184.647-.388.953-.609.322-.239.627-.501.91-.786a1.115 1.115 0 0 1 1.043-.247c-.68.675-1.305 1.342-1.972 1.956z"/></svg>
